svg/u1f3b8.svg

<svg viewBox="0 0 128 128" xmlns="http://www.w3.org/2000/svg">
  <defs/>
  <path d="M123.8,12.23 C123.37,9.41 121.04,8.01 121.04,8.01 C117.62,8.44 97.88,17 97.88,17 L97.23,22.55 L54.61,64.3 C54.19,64.72 54.25,65.43 54.74,65.89 L61.48,72.63 C62,73.07 62.73,73.07 63.11,72.62 C63.11,72.62 66.76,71.35 71.08,66.5 C73.96,63.27 73.15,61.39 74.66,59.7 C85.97,47.04 101.7,29.44 102.93,28.06 L108.14,28.21 C109.06,28.24 109.92,27.75 110.37,26.95 C111.7,24.57 114.59,19.56 116.56,17.44 C118.27,15.6 118.94,15.84 121.21,15.18 C123.43,14.52 124.13,14.36 123.8,12.23 Z" fill="#2F7889"/>
  <path d="M56.78,62.1 C56.78,62.1 53.16,57.98 49.47,59.64 C44.54,61.86 47.91,67.39 41.32,69.68 C34.12,72.17 29.02,76.92 31.48,82.68 C34.12,88.86 44.66,89.21 45.16,105.06 C45.4,112.65 50.82,112.46 53.22,109.97 C57.43,105.58 57.01,92 61.36,87.16 C65.71,82.32 76.49,83.56 80.4,74.54 C80.4,74.54 73.7,81.27 65.19,74.63 C61.16,71.48 61.21,66.23 61.21,66.23 L56.78,62.1 L56.78,62.1 Z" fill="#FFFDE7"/>
  <path d="M67.24,54.3 C67.24,54.3 67.68,54.75 66.4,53.65 C63.66,51.3 61.79,59.61 57.55,55.4 C51.94,50.66 53.61,46.47 57.96,41.79 C60.09,39.5 61.01,38.44 60.59,35.77 C60.24,33.5 58.12,32.06 55.28,32.06 C52.51,32.22 47.58,35.92 42.84,42.96 C35.63,53.66 39.05,59.34 31.54,65.06 C24.04,70.77 7.47,72.79 6.33,87.27 C5.68,95.58 9.54,100.32 14.48,106.39 C17.9,110.6 26.12,117.87 32.24,120.93 C38.36,123.99 45.95,125.68 52.21,121.51 C66.07,112.28 64,102.9 66.34,96.83 C69.03,89.87 75.7,92.2 82.54,85.67 C87.62,81.13 88.75,76.55 88.44,73.48 C88.11,70.33 85.33,67.04 82.72,67.46 C81.72,66.99 82.82,69.93 81.97,71.65 C79.82,76.02 76.37,78.57 71.8,74.97 C68.11,72.06 72.44,64.6 72.44,64.6 L69.58,61.18 L67.24,54.3 Z" fill="#C62828"/>
  <path d="M65.1,52.16 C65.1,52.16 65.54,52.61 64.26,51.51 C61.52,49.16 55.89,56.7 51.66,52.49 C47.73,48.58 53.41,42.52 57.6,38.44 C61.2,35.59 57.77,31.92 55.3,32.06 C52.53,32.22 45.46,33.78 40.72,40.82 C33.51,51.52 36.93,57.2 29.42,62.92 C23.38,67.51 13.75,69.28 7.68,77.37 C6.16,79.4 4.96,80.35 4.2,85.13 C3.55,93.44 7.41,98.18 12.35,104.25 C15.77,108.46 23.99,115.73 30.11,118.79 C36.23,121.85 43.01,123.54 49.28,119.37 C63.14,110.14 60.66,99.64 63,93.56 C65.69,86.6 74.16,88.84 81,82.32 C85.52,78.01 86.63,74.41 86.32,71.34 C86.1,69.14 84.55,68.15 83.39,67.61 C82.39,67.14 80.7,67.79 79.85,69.52 C77.7,73.89 74.25,76.44 69.68,72.84 C65.99,69.93 69.79,61.62 69.79,61.62 L65.1,52.16 Z" fill="#F44336"/>
  <path d="M54.74,60.56 C53.99,59.99 49.97,57.44 46.48,60.65 C42.72,64.11 45.78,68.84 39.83,69.75 C32.3,70.91 27.83,75.93 30.29,81.69 C32.93,87.87 44.67,89.18 45.17,105.04 C45.41,112.63 50.72,112.32 53.23,109.95 C59.04,104.45 55.68,92.3 61.37,87.14 C66.28,82.69 73.72,85.12 77.28,78.89 C77.91,77.79 77.95,76.82 76.44,77.45 C73.66,78.61 70.19,79.2 66.4,75.49 C63.31,72.45 63.86,68.24 63.86,68.24 C63.86,68.24 55.45,61.1 54.74,60.56 Z" fill="#FFFDE7"/>
  <path d="M53.267,93.22 C54.519,94.396 54.572,96.374 53.385,97.638 C52.197,98.902 50.22,98.974 48.968,97.798 C47.716,96.623 47.663,94.645 48.85,93.381 C50.037,92.116 52.015,92.045 53.267,93.22 Z" fill="#82AEC0"/>
  <path d="M48.85,93.39 C49.94,92.18 52.03,91.88 53.44,93.04 C54.13,93.6 54.6,94.46 54.67,95.4 C54.74,96.33 54.39,97.29 53.75,97.99 C53.1,98.68 52.16,99.09 51.23,99.08 C50.29,99.07 49.4,98.65 48.8,98 C47.54,96.66 47.71,94.55 48.85,93.39 Z M48.85,93.39 C48.29,93.99 47.99,94.82 48.06,95.62 C48.13,96.42 48.54,97.16 49.13,97.62 C50.34,98.59 52.09,98.31 53.01,97.3 C53.97,96.32 54.14,94.55 53.09,93.4 C52.59,92.84 51.83,92.47 51.02,92.46 C50.23,92.44 49.42,92.79 48.85,93.39 Z" fill="#2F7889"/>
  <path d="M52.366,102.341 C53.421,103.331 53.464,104.999 52.462,106.066 C51.46,107.133 49.793,107.195 48.738,106.204 C47.684,105.214 47.641,103.546 48.642,102.479 C49.644,101.412 51.311,101.35 52.366,102.341 Z" fill="#82AEC0"/>
  <path d="M48.64,102.47 C49.56,101.45 51.32,101.17 52.54,102.15 C53.13,102.62 53.55,103.36 53.62,104.17 C53.69,104.97 53.39,105.81 52.83,106.41 C52.27,107 51.45,107.36 50.65,107.34 C49.84,107.33 49.08,106.95 48.57,106.39 C47.51,105.23 47.68,103.45 48.64,102.47 Z M48.64,102.47 C48.17,102.98 47.92,103.68 47.99,104.35 C48.05,105.03 48.41,105.63 48.91,106.01 C49.93,106.8 51.36,106.54 52.1,105.71 C52.88,104.91 53.05,103.47 52.2,102.5 C51.79,102.03 51.16,101.7 50.48,101.69 C49.8,101.68 49.12,101.97 48.64,102.47 Z" fill="#2F7889"/>
  <path d="M102.8,25.55 L96.4,18.7 L53.51,62.41 C53.09,62.83 53.15,63.54 53.64,64 L60.41,70.5 C60.93,70.94 61.66,70.94 62.04,70.49 L102.8,25.55 Z" fill="#F7CF92"/>
  <path d="M94.98,19.85 L94.69,18.7 C93.9,16.2 95.36,15.59 95.99,15.36 C100.03,13.9 113.41,8.52 116.31,7.78 C118.8,7.15 122.55,7.34 122.84,11.05 C122.93,12.25 122.05,12.76 120.89,13.05 C118.97,13.52 117.73,13.48 115.49,16.08 C113.58,18.29 110.71,23.01 109.44,25.25 C109.02,26 108.23,26.46 107.35,26.47 L102.39,26 L94.98,19.85 Z" fill="#F7CF92"/>
  <path d="M48.37,64.58 C49.08,64.7 49.7,64.91 50.33,65.11 C50.73,65.54 51.16,65.94 51.57,66.36 L54.06,68.85 L56.55,71.34 L57.8,72.59 C58,73.22 58.21,73.84 58.34,74.54 C57.64,74.41 57.02,74.2 56.39,74 L55.14,72.75 L52.65,70.26 L50.16,67.77 C49.74,67.36 49.34,66.93 48.91,66.53 C48.7,65.92 48.49,65.29 48.37,64.58 Z" fill="#82AEC0"/>
  <path d="M40.67,72.29 C41.38,72.41 42,72.62 42.63,72.82 C43.03,73.25 43.46,73.65 43.87,74.07 L46.36,76.56 L48.85,79.05 L50.1,80.3 C50.3,80.93 50.51,81.55 50.64,82.25 C49.94,82.12 49.32,81.91 48.69,81.71 L47.44,80.46 L44.95,77.97 L42.46,75.48 C42.04,75.07 41.64,74.64 41.21,74.24 C40.99,73.62 40.79,73 40.67,72.29 Z" fill="#82AEC0"/>
  <path d="M36.64,78.03 C37.28,78.36 37.81,78.74 38.35,79.13 C38.6,79.66 38.89,80.18 39.15,80.7 L40.77,83.83 L42.39,86.96 L43.2,88.52 C43.2,89.18 43.21,89.84 43.12,90.54 C42.49,90.2 41.96,89.82 41.42,89.44 L40.61,87.88 L39,84.75 L37.38,81.62 C37.11,81.1 36.85,80.57 36.56,80.06 C36.55,79.4 36.54,78.74 36.64,78.03 Z" fill="#82AEC0"/>
  <path d="M27.41,91.446 L95.91,20.536 Q96.084,20.356 96.264,20.53 Q96.354,20.617 96.355,20.705 Q96.357,20.794 96.27,20.884 L27.77,91.794 Q27.683,91.884 27.595,91.885 Q27.506,91.887 27.416,91.8 Q27.236,91.626 27.41,91.446 Z" fill="#82AEC0"/>
  <path d="M28.68,92.597 L97.04,21.417 Q97.213,21.237 97.393,21.41 Q97.483,21.496 97.485,21.585 Q97.487,21.673 97.4,21.763 L29.04,92.943 Q28.954,93.033 28.865,93.035 Q28.777,93.037 28.687,92.95 Q28.507,92.777 28.68,92.597 Z" fill="#82AEC0"/>
  <path d="M29.949,93.757 L98.079,22.397 Q98.252,22.217 98.433,22.389 Q98.523,22.475 98.525,22.564 Q98.527,22.652 98.441,22.743 L30.311,94.103 Q30.225,94.193 30.136,94.195 Q30.048,94.197 29.957,94.111 Q29.777,93.938 29.949,93.757 Z" fill="#82AEC0"/>
  <path d="M31.229,94.908 L99.079,23.418 Q99.165,23.327 99.253,23.325 Q99.341,23.323 99.432,23.409 Q99.613,23.581 99.441,23.762 L31.591,95.252 Q31.419,95.433 31.238,95.261 Q31.147,95.175 31.145,95.087 Q31.143,94.999 31.229,94.908 Z" fill="#82AEC0"/>
  <path d="M32.498,96.068 L100.278,24.228 Q100.364,24.138 100.452,24.135 Q100.541,24.132 100.632,24.218 Q100.813,24.39 100.642,24.572 L32.862,96.412 Q32.69,96.593 32.508,96.422 Q32.327,96.25 32.498,96.068 Z" fill="#82AEC0"/>
  <path d="M33.768,97.229 L101.498,25.239 Q101.669,25.057 101.851,25.228 Q101.942,25.314 101.945,25.402 Q101.948,25.49 101.862,25.581 L34.132,97.571 Q34.046,97.662 33.958,97.665 Q33.87,97.668 33.779,97.582 Q33.597,97.411 33.768,97.229 Z" fill="#82AEC0"/>
  <path d="M21.62,90.26 C21.35,90.55 21.28,90.93 21.47,91.11 L34.75,103.33 C34.94,103.51 35.32,103.41 35.59,103.12 L40.09,98.42 C40.36,98.13 40.43,97.75 40.24,97.57 L26.96,85.35 C26.77,85.17 26.39,85.27 26.12,85.56 L21.62,90.26 Z" fill="#2F7889"/>
  <path d="M40.5,51.25 C39.69,51.1 39.25,50.34 39.57,48.46 C40.46,43.16 43.96,38.29 48.84,36.02 C50.55,35.22 52.14,35.36 52.47,37.42 C52.64,38.51 52.05,39.57 50.46,40.49 C46.9,42.57 43.51,45.61 42.48,49.6 C42.1,51.04 41.4,51.41 40.5,51.25 Z" fill="#FF7043"/>
  <path d="M96.515,11.839 C97.507,12.55 97.902,13.698 97.397,14.402 C96.891,15.107 95.678,15.102 94.686,14.391 C93.694,13.68 93.299,12.532 93.804,11.827 C94.31,11.122 95.523,11.128 96.515,11.839 Z" fill="#82AEC0"/>
  <path d="M100.522,10.376 C101.514,11.087 101.909,12.235 101.404,12.94 C100.898,13.644 99.685,13.639 98.693,12.928 C97.701,12.217 97.306,11.069 97.811,10.365 C98.317,9.66 99.53,9.665 100.522,10.376 Z" fill="#82AEC0"/>
  <path d="M104.523,8.922 C105.515,9.633 105.91,10.781 105.405,11.485 C104.9,12.19 103.686,12.185 102.694,11.474 C101.702,10.763 101.307,9.615 101.813,8.91 C102.318,8.206 103.531,8.211 104.523,8.922 Z" fill="#82AEC0"/>
  <path d="M108.53,7.459 C109.522,8.17 109.917,9.318 109.412,10.023 C108.906,10.728 107.693,10.722 106.701,10.011 C105.709,9.3 105.314,8.152 105.82,7.448 C106.325,6.743 107.538,6.748 108.53,7.459 Z" fill="#82AEC0"/>
  <path d="M112.531,6.005 C113.523,6.716 113.918,7.864 113.413,8.568 C112.908,9.273 111.694,9.268 110.702,8.557 C109.71,7.846 109.315,6.698 109.821,5.993 C110.326,5.289 111.539,5.294 112.531,6.005 Z" fill="#82AEC0"/>
  <path d="M116.546,4.548 C117.538,5.259 117.933,6.407 117.428,7.112 C116.923,7.817 115.709,7.811 114.717,7.1 C113.725,6.389 113.331,5.241 113.836,4.537 C114.341,3.832 115.554,3.837 116.546,4.548 Z" fill="#82AEC0"/>
</svg>

<svg viewBox="0 0 128 128" xmlns="http://www.w3.org/2000/svg">
  <g>
    <path d="M123.8,12.23c-0.43-2.82-2.76-4.22-2.76-4.22C117.62,8.44,97.88,17,97.88,17l-0.65,5.55L54.61,64.3 c-0.42,0.42-0.36,1.13,0.13,1.59l6.74,6.74c0.52,0.44,1.25,0.44,1.63-0.01c0,0,3.65-1.27,7.97-6.12c2.88-3.23,2.07-5.11,3.58-6.8 c11.31-12.66,27.04-30.26,28.27-31.64l5.21,0.15c0.92,0.03,1.78-0.46,2.23-1.26c1.33-2.38,4.22-7.39,6.19-9.51 c1.71-1.84,2.38-1.6,4.65-2.26C123.43,14.52,124.13,14.36,123.8,12.23z" fill="#2F7889"/>
    <path d="M56.78,62.1c0,0-3.62-4.12-7.31-2.46c-4.93,2.22-1.56,7.75-8.15,10.04c-7.2,2.49-12.3,7.24-9.84,13 c2.64,6.18,13.18,6.53,13.68,22.38c0.24,7.59,5.66,7.4,8.06,4.91c4.21-4.39,3.79-17.97,8.14-22.81c4.35-4.84,15.13-3.6,19.04-12.62 c0,0-6.7,6.73-15.21,0.09c-4.03-3.15-3.98-8.4-3.98-8.4L56.78,62.1L56.78,62.1z" fill="#FFFDE7"/>
    <path d="M67.24,54.3c0,0,0.44,0.45-0.84-0.65c-2.74-2.35-4.61,5.96-8.85,1.75 c-5.61-4.74-3.94-8.93,0.41-13.61c2.13-2.29,3.05-3.35,2.63-6.02c-0.35-2.27-2.47-3.71-5.31-3.71c-2.77,0.16-7.7,3.86-12.44,10.9 c-7.21,10.7-3.79,16.38-11.3,22.1c-7.5,5.71-24.07,7.73-25.21,22.21c-0.65,8.31,3.21,13.05,8.15,19.12 c3.42,4.21,11.64,11.48,17.76,14.54s13.71,4.75,19.97,0.58c13.86-9.23,11.79-18.61,14.13-24.68c2.69-6.96,9.36-4.63,16.2-11.16 c5.08-4.54,6.21-9.12,5.9-12.19c-0.33-3.15-3.11-6.44-5.72-6.02c-1-0.47,0.1,2.47-0.75,4.19c-2.15,4.37-5.6,6.92-10.17,3.32 c-3.69-2.91,0.64-10.37,0.64-10.37l-2.86-3.42L67.24,54.3z" fill="#C62828"/>
    <path d="M65.1,52.16c0,0,0.44,0.45-0.84-0.65c-2.74-2.35-8.37,5.19-12.6,0.98 c-3.93-3.91,1.75-9.97,5.94-14.05c3.6-2.85,0.17-6.52-2.3-6.38c-2.77,0.16-9.84,1.72-14.58,8.76c-7.21,10.7-3.79,16.38-11.3,22.1 c-6.04,4.59-15.67,6.36-21.74,14.45c-1.52,2.03-2.72,2.98-3.48,7.76c-0.65,8.31,3.21,13.05,8.15,19.12 c3.42,4.21,11.64,11.48,17.76,14.54s12.9,4.75,19.17,0.58c13.86-9.23,11.38-19.73,13.72-25.81c2.69-6.96,11.16-4.72,18-11.24 c4.52-4.31,5.63-7.91,5.32-10.98c-0.22-2.2-1.77-3.19-2.93-3.73c-1-0.47-2.69,0.18-3.54,1.91c-2.15,4.37-5.6,6.92-10.17,3.32 c-3.69-2.91,0.11-11.22,0.11-11.22L65.1,52.16z" fill="#F44336"/>
    <path d="M54.74,60.56c-0.75-0.57-4.77-3.12-8.26,0.09c-3.76,3.46-0.7,8.19-6.65,9.1 c-7.53,1.16-12,6.18-9.54,11.94c2.64,6.18,14.38,7.49,14.88,23.35c0.24,7.59,5.55,7.28,8.06,4.91c5.81-5.5,2.45-17.65,8.14-22.81 c4.91-4.45,12.35-2.02,15.91-8.25c0.63-1.1,0.67-2.07-0.84-1.44c-2.78,1.16-6.25,1.75-10.04-1.96c-3.09-3.04-2.54-7.25-2.54-7.25 S55.45,61.1,54.74,60.56z" fill="#FFFDE7"/>
    <g>
      <ellipse cx="51.12" cy="95.51" rx="3.14" ry="3.11" fill="#82AEC0" transform="matrix(0.6845 -0.729 0.729 0.6845 -53.5011 67.3992)"/>
      <path d="M48.85,93.39c1.09-1.21,3.18-1.51,4.59-0.35c0.69,0.56,1.16,1.42,1.23,2.36 c0.07,0.93-0.28,1.89-0.92,2.59c-0.65,0.69-1.59,1.1-2.52,1.09c-0.94-0.01-1.83-0.43-2.43-1.08 C47.54,96.66,47.71,94.55,48.85,93.39z M48.85,93.39c-0.56,0.6-0.86,1.43-0.79,2.23c0.07,0.8,0.48,1.54,1.07,2 c1.21,0.97,2.96,0.69,3.88-0.32c0.96-0.98,1.13-2.75,0.08-3.9c-0.5-0.56-1.26-0.93-2.07-0.94C50.23,92.44,49.42,92.79,48.85,93.39 z" fill="#2F7889"/>
    </g>
    <g>
      <ellipse cx="50.55" cy="104.27" rx="2.65" ry="2.62" fill="#82AEC0" transform="matrix(0.6845 -0.729 0.729 0.6845 -60.062 69.7506)"/>
      <path d="M48.64,102.47c0.92-1.02,2.68-1.3,3.9-0.32c0.59,0.47,1.01,1.21,1.08,2.02 c0.07,0.8-0.23,1.64-0.79,2.24c-0.56,0.59-1.38,0.95-2.18,0.93c-0.81-0.01-1.57-0.39-2.08-0.95 C47.51,105.23,47.68,103.45,48.64,102.47z M48.64,102.47c-0.47,0.51-0.72,1.21-0.65,1.88c0.06,0.68,0.42,1.28,0.92,1.66 c1.02,0.79,2.45,0.53,3.19-0.3c0.78-0.8,0.95-2.24,0.1-3.21c-0.41-0.47-1.04-0.8-1.72-0.81C49.8,101.68,49.12,101.97,48.64,102.47 z" fill="#2F7889"/>
    </g>
    <path d="M102.8,25.55L96.4,18.7L53.51,62.41c-0.42,0.42-0.36,1.13,0.13,1.59l6.77,6.5 c0.52,0.44,1.25,0.44,1.63-0.01L102.8,25.55z" fill="#F7CF92"/>
    <path d="M94.98,19.85l-0.29-1.15c-0.79-2.5,0.67-3.11,1.3-3.34c4.04-1.46,17.42-6.84,20.32-7.58 c2.49-0.63,6.24-0.44,6.53,3.27c0.09,1.2-0.79,1.71-1.95,2c-1.92,0.47-3.16,0.43-5.4,3.03c-1.91,2.21-4.78,6.93-6.05,9.17 c-0.42,0.75-1.21,1.21-2.09,1.22L102.39,26L94.98,19.85z" fill="#F7CF92"/>
    <path d="M48.37,64.58c0.71,0.12,1.33,0.33,1.96,0.53c0.4,0.43,0.83,0.83,1.24,1.25l2.49,2.49l2.49,2.49 l1.25,1.25c0.2,0.63,0.41,1.25,0.54,1.95c-0.7-0.13-1.32-0.34-1.95-0.54l-1.25-1.25l-2.49-2.49l-2.49-2.49 c-0.42-0.41-0.82-0.84-1.25-1.24C48.7,65.92,48.49,65.29,48.37,64.58z" fill="#82AEC0"/>
    <path d="M40.67,72.29c0.71,0.12,1.33,0.33,1.96,0.53c0.4,0.43,0.83,0.83,1.24,1.25l2.49,2.49l2.49,2.49 l1.25,1.25c0.2,0.63,0.41,1.25,0.54,1.95c-0.7-0.13-1.32-0.34-1.95-0.54l-1.25-1.25l-2.49-2.49l-2.49-2.49 c-0.42-0.41-0.82-0.84-1.25-1.24C40.99,73.62,40.79,73,40.67,72.29z" fill="#82AEC0"/>
    <path d="M36.64,78.03c0.64,0.33,1.17,0.71,1.71,1.1c0.25,0.53,0.54,1.05,0.8,1.57l1.62,3.13l1.62,3.13 l0.81,1.56c0,0.66,0.01,1.32-0.08,2.02c-0.63-0.34-1.16-0.72-1.7-1.1l-0.81-1.56L39,84.75l-1.62-3.13 c-0.27-0.52-0.53-1.05-0.82-1.56C36.55,79.4,36.54,78.74,36.64,78.03z" fill="#82AEC0"/>
    <g>
      <line fill="none" stroke="#82AEC0" stroke-width="0.5" stroke-linecap="round" stroke-miterlimit="10" x1="27.59" x2="96.09" y1="91.62" y2="20.71"/>
      <line fill="none" stroke="#82AEC0" stroke-width="0.5" stroke-linecap="round" stroke-miterlimit="10" x1="28.86" x2="97.22" y1="92.77" y2="21.59"/>
      <line fill="none" stroke="#82AEC0" stroke-width="0.5" stroke-linecap="round" stroke-miterlimit="10" x1="30.13" x2="98.26" y1="93.93" y2="22.57"/>
      <line fill="none" stroke="#82AEC0" stroke-width="0.5" stroke-linecap="round" stroke-miterlimit="10" x1="31.41" x2="99.26" y1="95.08" y2="23.59"/>
      <line fill="none" stroke="#82AEC0" stroke-width="0.5" stroke-linecap="round" stroke-miterlimit="10" x1="32.68" x2="100.46" y1="96.24" y2="24.4"/>
      <line fill="none" stroke="#82AEC0" stroke-width="0.5" stroke-linecap="round" stroke-miterlimit="10" x1="33.95" x2="101.68" y1="97.4" y2="25.41"/>
    </g>
    <path d="M21.62,90.26c-0.27,0.29-0.34,0.67-0.15,0.85l13.28,12.22c0.19,0.18,0.57,0.08,0.84-0.21l4.5-4.7 c0.27-0.29,0.34-0.67,0.15-0.85L26.96,85.35c-0.19-0.18-0.57-0.08-0.84,0.21L21.62,90.26z" fill="#2F7889"/>
    <path d="M40.5,51.25c-0.81-0.15-1.25-0.91-0.93-2.79c0.89-5.3,4.39-10.17,9.27-12.44 c1.71-0.8,3.3-0.66,3.63,1.4c0.17,1.09-0.42,2.15-2.01,3.07c-3.56,2.08-6.95,5.12-7.98,9.11C42.1,51.04,41.4,51.41,40.5,51.25z" fill="#FF7043"/>
    <g>
      <ellipse cx="95.6" cy="13.11" rx="1.57" ry="2.21" fill="#82AEC0" transform="matrix(0.5826 -0.8127 0.8127 0.5826 29.2495 83.1709)"/>
      <ellipse cx="99.61" cy="11.65" rx="1.57" ry="2.21" fill="#82AEC0" transform="matrix(0.5826 -0.8127 0.8127 0.5826 32.1068 85.818)"/>
      <ellipse cx="103.61" cy="10.19" rx="1.57" ry="2.21" fill="#82AEC0" transform="matrix(0.5826 -0.8127 0.8127 0.5826 34.964 88.465)"/>
      <ellipse cx="107.62" cy="8.73" rx="1.57" ry="2.21" fill="#82AEC0" transform="matrix(0.5826 -0.8127 0.8127 0.5826 37.8213 91.112)"/>
      <ellipse cx="111.62" cy="7.27" rx="1.57" ry="2.21" fill="#82AEC0" transform="matrix(0.5826 -0.8127 0.8127 0.5826 40.6785 93.759)"/>
      <ellipse cx="115.63" cy="5.82" rx="1.57" ry="2.21" fill="#82AEC0" transform="matrix(0.5826 -0.8127 0.8127 0.5826 43.5358 96.4061)"/>
    </g>
  </g>
</svg>
